public/images/reddit.svg

<svg width="24" height="24" viewBox="0 0 24 24" fill="none" xmlns="http://www.w3.org/2000/svg">
<path d="M9.24839 14.5017C8.91673 14.5017 8.59866 14.37 8.36415 14.1356C8.12963 13.9012 7.99788 13.5833 7.99788 13.2518C7.99788 12.9204 8.12963 12.6025 8.36415 12.3681C8.59866 12.1337 8.91673 12.002 9.24839 12.002C9.58004 12.002 9.89811 12.1337 10.1326 12.3681C10.3671 12.6025 10.4989 12.9204 10.4989 13.2518C10.4989 13.5833 10.3671 13.9012 10.1326 14.1356C9.89811 14.37 9.58004 14.5017 9.24839 14.5017ZM14.7506 14.5017C14.4189 14.5017 14.1009 14.37 13.8664 14.1356C13.6318 13.9012 13.5001 13.5833 13.5001 13.2518C13.5001 12.9204 13.6318 12.6025 13.8664 12.3681C14.1009 12.1337 14.4189 12.002 14.7506 12.002C15.0823 12.002 15.4003 12.1337 15.6348 12.3681C15.8694 12.6025 16.0011 12.9204 16.0011 13.2518C16.0011 13.5833 15.8694 13.9012 15.6348 14.1356C15.4003 14.37 15.0823 14.5017 14.7506 14.5017ZM8.61713 17.2484C8.51026 17.1979 8.4144 17.1268 8.33501 17.0392C8.25563 16.9516 8.19429 16.8492 8.15448 16.738C8.11467 16.6267 8.09719 16.5087 8.10302 16.3906C8.10885 16.2726 8.13788 16.1569 8.18846 16.05C8.23904 15.9432 8.31017 15.8474 8.3978 15.7681C8.48543 15.6887 8.58784 15.6274 8.69917 15.5876C8.81051 15.5478 8.92859 15.5304 9.04669 15.5362C9.16478 15.542 9.28057 15.571 9.38744 15.6216C10.2038 16.0083 11.0961 16.2081 11.9995 16.2065C12.9179 16.2065 13.8062 16.0045 14.6165 15.6186C14.8323 15.5161 15.0799 15.5034 15.3049 15.5834C15.5299 15.6634 15.714 15.8294 15.8165 16.045C15.9191 16.2606 15.9317 16.5081 15.8517 16.733C15.7717 16.958 15.6056 17.1419 15.3899 17.2444C14.3394 17.7444 13.187 18.0063 11.9995 18.0063C10.8297 18.0079 9.67427 17.749 8.61713 17.2484ZM15.668 4.94275L13.7612 4.30882L13.0139 8.04141C14.1381 8.12711 15.244 8.37498 16.2972 8.77733C16.9204 8.2746 17.6973 8.00073 18.4981 8.00142C19.1895 8.00172 19.8654 8.2065 20.4406 8.58997C21.0158 8.97344 21.4646 9.51845 21.7306 10.1564C21.9965 10.7943 22.0676 11.4966 21.9349 12.1748C21.8023 12.8531 21.4718 13.4769 20.9851 13.9678C21.0051 14.1427 21.0141 14.3207 21.0141 14.5007C21.0141 18.1873 16.9165 21 12.0005 21C7.08452 21 2.98687 18.1873 2.98687 14.5007C2.98687 14.3207 2.99687 14.1447 3.01588 13.9698C2.52898 13.4791 2.19824 12.8553 2.06533 12.1771C1.93242 11.4989 2.00328 10.7965 2.26898 10.1585C2.53468 9.52045 2.98335 8.97526 3.55846 8.59158C4.13358 8.20791 4.80942 8.00292 5.50088 8.00242C6.31821 8.00242 7.09052 8.28439 7.70177 8.77833C8.75941 8.37469 9.87012 8.12679 10.9991 8.04241C10.9965 7.96357 11.0032 7.8847 11.0191 7.80744L11.7974 3.91786C11.8534 3.63968 11.9679 3.37657 12.1334 3.14599C12.2989 2.91541 12.5115 2.72262 12.7572 2.58041C13.0028 2.43821 13.276 2.34983 13.5584 2.32114C13.8409 2.29246 14.1262 2.32412 14.3955 2.41402L15.2958 2.71399C15.5887 2.09835 16.0823 1.60058 16.6957 1.30246C17.309 1.00435 18.0056 0.923625 18.6709 1.07356C19.3362 1.22349 19.9307 1.59516 20.3568 2.1275C20.7828 2.65983 21.0149 3.32117 21.0151 4.00285C21.0151 5.65967 19.6696 7.00253 18.0109 7.00253C17.8795 7.00255 17.7494 6.9767 17.628 6.92646C17.5066 6.87622 17.3963 6.80257 17.3034 6.70972C17.2105 6.61687 17.1368 6.50663 17.0865 6.38531C17.0362 6.26399 17.0104 6.13395 17.0104 6.00263C17.0104 5.87131 17.0362 5.74128 17.0865 5.61996C17.1368 5.49863 17.2105 5.3884 17.3034 5.29555C17.3963 5.2027 17.5066 5.12905 17.628 5.07881C17.7494 5.02857 17.8795 5.00272 18.0109 5.00274C18.208 5.00252 18.4006 4.94411 18.5646 4.83486C18.7286 4.7256 18.8567 4.57036 18.9327 4.38863C19.0088 4.20689 19.0294 4.00675 18.992 3.81334C18.9547 3.61992 18.861 3.44184 18.7227 3.30145C18.5845 3.16106 18.4078 3.06461 18.2149 3.02421C18.022 2.98382 17.8215 3.00127 17.6385 3.07438C17.4555 3.14749 17.2981 3.273 17.1862 3.43515C17.0743 3.59731 17.0129 3.78889 17.0095 3.98585C17.0127 4.16214 16.9689 4.33609 16.8825 4.4898C16.7662 4.69632 16.5807 4.85514 16.3586 4.93821C16.1366 5.02127 15.8923 5.02323 15.669 4.94375L15.668 4.94275ZM3.99827 11.502C3.99823 11.8115 4.09397 12.1134 4.27236 12.3664C4.45074 12.6193 4.70305 12.8109 4.99467 12.9149C5.04423 12.9325 5.0898 12.9598 5.12877 12.9952C5.16773 13.0305 5.19933 13.0732 5.22173 13.1207C5.24414 13.1683 5.25692 13.2199 5.25932 13.2724C5.26173 13.3249 5.25373 13.3774 5.23577 13.4268C5.07171 13.8768 4.98967 14.2347 4.98967 14.5017C4.98967 16.8894 8.06591 19.0012 12.0005 19.0012C15.9351 19.0012 19.0113 16.8894 19.0113 14.5017C19.0113 14.2357 18.9303 13.8798 18.7672 13.4338C18.7489 13.3835 18.7408 13.33 18.7432 13.2765C18.7456 13.223 18.7586 13.1705 18.7813 13.122C18.8041 13.0735 18.8362 13.03 18.8759 12.9939C18.9155 12.9579 18.9619 12.93 19.0123 12.9119C19.3411 12.7899 19.6168 12.5569 19.7918 12.2531C19.9667 11.9493 20.0298 11.594 19.9702 11.2486C19.9106 10.9032 19.732 10.5895 19.4653 10.3619C19.1987 10.1343 18.8608 10.007 18.5101 10.0022C18.127 10.0022 17.7768 10.1452 17.5117 10.3822C17.4037 10.4781 17.3016 10.6301 17.2076 10.8371C17.1788 10.9003 17.1373 10.9569 17.0857 11.0034C17.0341 11.0498 16.9734 11.0851 16.9075 11.1071C16.8416 11.1291 16.7718 11.1372 16.7026 11.131C16.6334 11.1248 16.5663 11.1044 16.5053 11.0711C15.2948 10.4122 13.7302 10.0022 11.9995 10.0022C10.2668 10.0022 8.70117 10.4122 7.49068 11.0741C7.43021 11.1072 7.36354 11.1274 7.29486 11.1336C7.22618 11.1397 7.15698 11.1316 7.0916 11.1097C7.02621 11.0878 6.96606 11.0527 6.91492 11.0064C6.86377 10.9602 6.82274 10.9039 6.7944 10.8411C6.70036 10.6321 6.59832 10.4801 6.49028 10.3832C6.21516 10.1373 5.85891 10.0017 5.48987 10.0022C5.09328 10.0043 4.71365 10.1633 4.43396 10.4443C4.15427 10.7254 3.99727 11.1056 3.99727 11.502H3.99827Z" fill="white"/>
</svg>

<svg xmlns="http://www.w3.org/2000/svg" width="24" height="24" fill="none"><path fill="#fff" d="M9.248 14.502a1.25 1.25 0 1 1 0-2.502 1.25 1.25 0 0 1 0 2.502Zm5.503 0a1.25 1.25 0 1 1 0-2.502 1.25 1.25 0 0 1 0 2.502Zm-6.134 2.746a.9.9 0 1 1 .77-1.626 6.076 6.076 0 0 0 2.612.584c.919 0 1.807-.201 2.617-.587a.901.901 0 0 1 .774 1.625 7.87 7.87 0 0 1-3.39.762 7.878 7.878 0 0 1-3.383-.758Zm7.051-12.305-1.907-.634-.747 3.732a11.69 11.69 0 0 1 3.283.736 3.5 3.5 0 0 1 4.144-.187 3.503 3.503 0 0 1 .544 5.378c.02.175.03.353.03.533C21.014 18.187 16.915 21 12 21c-4.916 0-9.014-2.813-9.014-6.5 0-.18.01-.355.029-.53a3.501 3.501 0 0 1 4.686-5.192 11.692 11.692 0 0 1 3.297-.736 1.002 1.002 0 0 1 .02-.235l.778-3.89a2 2 0 0 1 2.598-1.503l.9.3a3.005 3.005 0 0 1 5.72 1.289c0 1.657-1.345 3-3.004 3a1 1 0 1 1 0-2 1 1 0 1 0-1.002-1.017 1.005 1.005 0 0 1-1.34.958l-.001-.001Zm-11.67 6.559a1.5 1.5 0 0 0 .997 1.413.397.397 0 0 1 .24.512c-.163.45-.245.808-.245 1.075 0 2.387 3.076 4.5 7.01 4.5 3.935 0 7.011-2.113 7.011-4.5 0-.266-.08-.622-.244-1.068a.407.407 0 0 1 .245-.522 1.503 1.503 0 0 0-.502-2.91c-.383 0-.733.143-.998.38-.108.096-.21.248-.304.455a.507.507 0 0 1-.703.234c-1.21-.659-2.775-1.069-4.505-1.069-1.733 0-3.299.41-4.51 1.072a.502.502 0 0 1-.696-.233 1.362 1.362 0 0 0-.304-.458 1.498 1.498 0 0 0-1-.38 1.501 1.501 0 0 0-1.493 1.499h.001Z"/></svg>
